package/converter/svg/light/bell-concierge.svg

<svg xmlns="http://www.w3.org/2000/svg" viewBox="0 0 512 512"><!-- Font Awesome Pro 6.0.0-alpha2 by @fontawesome - https://fontawesome.com License - https://fontawesome.com/license (Commercial License) --><path d="M48 384C56.844 384 64 376.844 64 368C64 262.125 150.125 176 256 176S448 262.125 448 368C448 376.844 455.156 384 464 384S480 376.844 480 368C480 249.9 388.033 153.074 272 144.811V96H304C312.844 96 320 88.844 320 80S312.844 64 304 64H208C199.156 64 192 71.156 192 80S199.156 96 208 96H240V144.811C123.967 153.074 32 249.9 32 368C32 376.844 39.156 384 48 384ZM496 416H16C7.156 416 0 423.156 0 432S7.156 448 16 448H496C504.844 448 512 440.844 512 432S504.844 416 496 416Z"/></svg>

<svg xmlns="http://www.w3.org/2000/svg" viewBox="0 0 512 512"><!--! Font Awesome Pro 6.6.0 by @fontawesome - https://fontawesome.com License - https://fontawesome.com/license (Commercial License) Copyright 2024 Fonticons, Inc. --><path d="M208 64c-8.8 0-16 7.2-16 16s7.2 16 16 16l32 0 0 48.6C123.8 152.8 32 249.7 32 368l0 16 32 0 0-16c0-106 86-192 192-192s192 86 192 192l0 16 32 0 0-16c0-118.3-91.8-215.2-208-223.4L272 96l32 0c8.8 0 16-7.2 16-16s-7.2-16-16-16l-48 0-48 0zM16 416c-8.8 0-16 7.2-16 16s7.2 16 16 16l480 0c8.8 0 16-7.2 16-16s-7.2-16-16-16L16 416z"/></svg>
